X:1002
T:Scale Navigation Low A
O:Kevin Fraser
Z:Kevin Fraser
Q:1/4=120
K:HP
M:4/4
L:1/4
R:March
V:gstem=up stem=down
%%MIDI gracedivider 4
%%MIDI gchord
%%MIDI beatstring
[| A  G  A  B  |  A  c  A  d  |  A  e  A  f  |  A  g   A  a  |  a  A  g   A  |  f   A  e  A |  d  A  c  A  |  B  A   G  A  |] 
w: A  G  A  B  |  A  c  A  d  |  A  e  A  f  |  A  g   A  a  |  a  A  g   A  |  f   A  e  A |  d  A  c  A  |  B  A   G  A  :|
w: en em en io |  en o  en a  |  en e  en ve |  en di  en I  |  I  en di  en |  ve  en e  en|  a  en o  en |  io en  em en :| 



